flaticon/emoticons/nerd-3.svg

<svg xmlns="http://www.w3.org/2000/svg" width="32" height="32" viewBox="0 0 24 24">
    <path d="M8.726562 8.726562C8.726562 9.632812 7.996094 10.363281 7.089844 10.363281 6.1875 10.363281 5.453125 9.632812 5.453125 8.726562 5.453125 7.824219 6.1875 7.089844 7.089844 7.089844 7.996094 7.089844 8.726562 7.824219 8.726562 8.726562zM18.546875 8.726562C18.546875 9.632812 17.8125 10.363281 16.910156 10.363281 16.003906 10.363281 15.273438 9.632812 15.273438 8.726562 15.273438 7.824219 16.003906 7.089844 16.910156 7.089844 17.8125 7.089844 18.546875 7.824219 18.546875 8.726562zM18.546875 8.726562"/>
    <path d="M 12 0 C 5.382812 0 0 5.382812 0 12 C 0 18.617188 5.382812 24 12 24 C 18.617188 24 24 18.617188 24 12 C 24 5.382812 18.617188 0 12 0 Z M 12 1.089844 C 16.355469 1.089844 20.117188 3.664062 21.863281 7.367188 L 21.273438 7.957031 L 21.273438 7.636719 C 21.273438 6.132812 20.050781 4.910156 18.546875 4.910156 L 15.273438 4.910156 C 13.769531 4.910156 12.546875 6.132812 12.546875 7.636719 L 12.546875 8.183594 L 11.453125 8.183594 L 11.453125 7.636719 C 11.453125 6.132812 10.230469 4.910156 8.726562 4.910156 L 5.453125 4.910156 C 3.949219 4.910156 2.726562 6.132812 2.726562 7.636719 L 2.726562 7.957031 L 2.136719 7.367188 C 3.882812 3.664062 7.644531 1.089844 12 1.089844 Z M 20.183594 7.636719 L 20.183594 9.816406 C 20.183594 10.71875 19.449219 11.453125 18.546875 11.453125 L 15.273438 11.453125 C 14.371094 11.453125 13.636719 10.71875 13.636719 9.816406 L 13.636719 7.636719 C 13.636719 6.734375 14.371094 6 15.273438 6 L 18.546875 6 C 19.449219 6 20.183594 6.734375 20.183594 7.636719 Z M 10.363281 7.636719 L 10.363281 9.816406 C 10.363281 10.71875 9.628906 11.453125 8.726562 11.453125 L 5.453125 11.453125 C 4.550781 11.453125 3.816406 10.71875 3.816406 9.816406 L 3.816406 7.636719 C 3.816406 6.734375 4.550781 6 5.453125 6 L 8.726562 6 C 9.628906 6 10.363281 6.734375 10.363281 7.636719 Z M 12 22.910156 C 5.984375 22.910156 1.089844 18.015625 1.089844 12 C 1.089844 10.761719 1.308594 9.574219 1.691406 8.460938 L 2.726562 9.5 L 2.726562 9.816406 C 2.726562 11.320312 3.949219 12.546875 5.453125 12.546875 L 8.726562 12.546875 C 10.230469 12.546875 11.453125 11.320312 11.453125 9.816406 L 11.453125 9.273438 L 12.546875 9.273438 L 12.546875 9.816406 C 12.546875 11.320312 13.769531 12.546875 15.273438 12.546875 L 18.546875 12.546875 C 20.050781 12.546875 21.273438 11.320312 21.273438 9.816406 L 21.273438 9.5 L 22.308594 8.460938 C 22.691406 9.574219 22.910156 10.761719 22.910156 12 C 22.910156 18.015625 18.015625 22.910156 12 22.910156 Z M 12 22.910156"/>
    <path d="M 17.664062 14.1875 C 17.386719 14.070312 17.066406 14.203125 16.949219 14.480469 C 16.265625 16.125 14.921875 17.402344 13.167969 18.070312 C 11.449219 18.722656 9.511719 18.699219 7.847656 18.003906 C 7.566406 17.890625 7.25 18.019531 7.132812 18.300781 C 7.015625 18.578125 7.148438 18.898438 7.425781 19.011719 C 8.417969 19.425781 9.496094 19.632812 10.574219 19.632812 C 11.585938 19.632812 12.597656 19.453125 13.554688 19.089844 C 15.589844 18.3125 17.15625 16.828125 17.957031 14.902344 C 18.074219 14.621094 17.941406 14.304688 17.664062 14.1875 Z M 17.664062 14.1875"/>
</svg>

<svg xmlns="http://www.w3.org/2000/svg" width="32" height="32" viewBox="0 0 24 24">
    <path d="M8.727 8.727a1.636 1.636 0 1 1-3.274 0 1.636 1.636 0 0 1 3.274 0zm0 0M18.547 8.727a1.636 1.636 0 1 1-3.273 0 1.636 1.636 0 0 1 3.273 0zm0 0"/>
    <path d="M12 0C5.383 0 0 5.383 0 12s5.383 12 12 12 12-5.383 12-12S18.617 0 12 0zm0 1.09c4.355 0 8.117 2.574 9.863 6.277l-.59.59v-.32a2.729 2.729 0 0 0-2.726-2.727h-3.274a2.729 2.729 0 0 0-2.726 2.727v.547h-1.094v-.547A2.729 2.729 0 0 0 8.727 4.91H5.453a2.729 2.729 0 0 0-2.726 2.727v.32l-.59-.59C3.883 3.664 7.645 1.09 12 1.09zm8.184 6.547v2.18c0 .902-.735 1.636-1.637 1.636h-3.274a1.639 1.639 0 0 1-1.636-1.637v-2.18c0-.902.734-1.636 1.636-1.636h3.274c.902 0 1.637.734 1.637 1.637zm-9.82 0v2.18c0 .902-.735 1.636-1.637 1.636H5.453a1.639 1.639 0 0 1-1.637-1.637v-2.18C3.816 6.735 4.551 6 5.453 6h3.274c.902 0 1.636.734 1.636 1.637zM12 22.91C5.984 22.91 1.09 18.016 1.09 12c0-1.238.219-2.426.601-3.54L2.727 9.5v.316a2.732 2.732 0 0 0 2.726 2.73h3.274a2.732 2.732 0 0 0 2.726-2.73v-.543h1.094v.543a2.732 2.732 0 0 0 2.726 2.73h3.274a2.732 2.732 0 0 0 2.726-2.73V9.5l1.036-1.04c.382 1.114.601 2.302.601 3.54 0 6.016-4.894 10.91-10.91 10.91zm0 0"/>
    <path d="M17.664 14.188a.547.547 0 0 0-.715.292c-.683 1.645-2.027 2.922-3.781 3.59-1.719.653-3.656.63-5.32-.066a.548.548 0 0 0-.422 1.008c.992.414 2.07.62 3.148.62a8.4 8.4 0 0 0 2.98-.542c2.036-.777 3.602-2.262 4.403-4.188a.546.546 0 0 0-.293-.714zm0 0"/>
</svg>
